Newaita-dark/apps/24/noson.svg

<svg height="24" viewBox="0 0 24 24" width="24" xmlns="http://www.w3.org/2000/svg" xmlns:xlink="http://www.w3.org/1999/xlink"><linearGradient id="a" gradientUnits="userSpaceOnUse" x1="11.90739" x2="11.90739" y1="21.02545225" y2="22.01773525002"><stop offset="0" stop-opacity=".27451"/><stop offset="1" stop-opacity="0"/></linearGradient><linearGradient id="b"><stop offset="0" stop-opacity=".313726"/><stop offset=".222222" stop-opacity=".27451"/><stop offset="1" stop-opacity="0"/></linearGradient><radialGradient id="c" cx="450.908936" cy="189.579361" gradientTransform="matrix(.00000013 -.0585994 -.105479 -.00000008 39.097986 47.696499)" gradientUnits="userSpaceOnUse" r="21.166656" xlink:href="#b"/><radialGradient id="d" cx="450.908936" cy="189.579361" gradientTransform="matrix(-.00000013 .0585994 .105479 .00000008 -15.28321 -5.645609)" gradientUnits="userSpaceOnUse" r="21.166656" xlink:href="#b"/><radialGradient id="e" cx="450.908936" cy="189.579361" gradientTransform="matrix(-.00000013 -.0585994 .105479 -.00000008 -15.28321 47.696499)" gradientUnits="userSpaceOnUse" r="21.166656" xlink:href="#b"/><radialGradient id="f" cx="450.908936" cy="189.579361" gradientTransform="matrix(.00000013 .0585994 -.105479 .00000008 39.097985 -5.64561)" gradientUnits="userSpaceOnUse" r="21.166656" xlink:href="#b"/><linearGradient id="g" gradientUnits="userSpaceOnUse" x1="7.93826174998" x2="7.93826174998" y1="21.02545025" y2="2.17207850005"><stop offset="0" stop-color="#ff7043"/><stop offset="1" stop-color="#ff8a65"/></linearGradient><linearGradient id="h"><stop offset="0" stop-color="#424242"/><stop offset="1" stop-color="#616161"/></linearGradient><linearGradient id="i" gradientUnits="userSpaceOnUse" x1="11.90739370319" x2="11.907393" xlink:href="#h" y1="1.17979550002" y2="23.01001625005"/><linearGradient id="j" gradientUnits="userSpaceOnUse" x1="11.907393" x2="11.907393" y1="21.02545025" y2="2.17207774998"><stop offset="0" stop-color="#757575"/><stop offset="1" stop-color="#9e9e9e"/></linearGradient><linearGradient id="k" gradientUnits="userSpaceOnUse" x1="12.56890790624" x2="12.56890790624" xlink:href="#h" y1="7.96039369374" y2="15.56789474999"/><path d="m4.464844 20.953125h14.882812v1.101563h-14.882812zm0 0" fill="url(#a)"/><path d="m19.347656 21.027344h1.988282v-.996094h-1.988282zm0 0" fill="url(#c)"/><path d="m4.464844 21.027344h-1.984375v.992187h1.984375zm0 0" fill="url(#d)"/><path d="m4.464844 21.027344h-1.984375v-.996094h1.984375zm0 0" fill="url(#e)"/><path d="m19.347656 21.027344h1.988282v.992187h-1.988282zm0 0" fill="url(#f)"/><path d="m3.472656 2.171875h16.867188c.550781 0 .996094.445313.996094.992187v16.867188c0 .550781-.445313.996094-.996094.996094h-16.867188c-.546875 0-.992187-.445313-.992187-.996094v-16.867188c0-.546874.445312-.992187.992187-.992187zm0 0" fill="url(#g)"/><path d="m3.472656 2.222656c-.550781 0-.992187.441406-.992187.992188v.121094c0-.546876.441406-.992188.992187-.992188h16.867188c.550781 0 .996094.445312.996094.992188v-.121094c0-.550782-.445313-.992188-.996094-.992188zm0 0" fill="#fff" fill-opacity=".392157"/><path d="m3.472656 20.964844c-.550781 0-.992187-.445313-.992187-.992188v-.125c0 .550782.441406.992188.992187.992188h16.867188c.550781 0 .996094-.441406.996094-.992188v.125c0 .546875-.445313.992188-.996094.992188zm0 0" fill-opacity=".196078"/><path d="m74.076259-168.671091h359.798975c11.748878 0 21.247971 9.499093 21.247971 21.164646v359.798974c0 11.748878-9.499093 21.247971-21.247971 21.247971h-359.798975c-11.665552 0-21.164645-9.499093-21.164645-21.247971v-359.798974c0-11.665553 9.499093-21.164646 21.164645-21.164646zm0 0" fill="none" stroke="#212121" stroke-linecap="round" stroke-width="3" transform="matrix(.0468795 0 0 .0468795 0 10.079087)"/><path d="m11.90625 4.652344c3.835938 0 6.945312 3.109375 6.945312 6.945312 0 3.835938-3.109374 6.945313-6.945312 6.945313s-6.945312-3.109375-6.945312-6.945313c0-3.835937 3.109374-6.945312 6.945312-6.945312zm0 0" fill="url(#i)"/><path d="m11.90625 4.652344c-3.847656 0-6.945312 3.097656-6.945312 6.945312 0 .050782 0 .097656.003906.144532.074218-3.78125 3.144531-6.800782 6.941406-6.800782 3.800781 0 6.867188 3.019532 6.945312 6.800782 0-.046876 0-.09375 0-.144532 0-3.847656-3.097656-6.945312-6.945312-6.945312zm0 0" fill-opacity=".235294"/><path d="m4.960938 11.722656v.125c0 3.847656 3.097656 6.945313 6.945312 6.945313s6.945312-3.097657 6.945312-6.945313c0-.042968 0-.082031 0-.125-.066406 3.789063-3.136718 6.820313-6.945312 6.820313-3.804688 0-6.878906-3.03125-6.945312-6.820313zm0 0" fill="#fff" fill-opacity=".392157"/><path d="m253.975747-115.759477c81.825519 0 148.152518 66.326999 148.152518 148.152519 0 81.825519-66.326999 148.152519-148.152518 148.152519-81.82552 0-148.152519-66.327-148.152519-148.152519 0-81.82552 66.326999-148.152519 148.152519-148.152519zm0 0" fill="none" stroke="#212121" stroke-linecap="round" stroke-linejoin="round" stroke-width="3" transform="matrix(.0468795 0 0 .0468795 0 10.079087)"/><path d="m11.90625 6.636719c2.742188 0 4.960938 2.222656 4.960938 4.960937 0 2.742188-2.21875 4.960938-4.960938 4.960938-2.738281 0-4.960938-2.21875-4.960938-4.960938 0-2.738281 2.222657-4.960937 4.960938-4.960937zm0 0" fill="url(#j)"/><path d="m11.90625 6.636719c-2.746094 0-4.960938 2.214843-4.960938 4.960937 0 .042969 0 .082032.003907.125.0625-2.691406 2.25-4.835937 4.957031-4.835937s4.894531 2.144531 4.960938 4.835937c0-.042968 0-.082031 0-.125 0-2.746094-2.210938-4.960937-4.960938-4.960937zm0 0" fill="#fff" fill-opacity=".392157"/><path d="m6.949219 11.785156c-.003907.0625-.003907.125-.003907.1875 0 2.746094 2.214844 4.960938 4.960938 4.960938 2.75 0 4.960938-2.214844 4.960938-4.960938 0-.0625 0-.125 0-.1875-.097657 2.660156-2.273438 4.773438-4.960938 4.773438-2.683594 0-4.859375-2.113282-4.957031-4.773438zm0 0" fill-opacity=".235294"/><path d="m253.975747-73.430186c58.494414 0 105.823227 47.412139 105.823227 105.823228 0 58.494414-47.328813 105.823228-105.823227 105.823228-58.411089 0-105.823228-47.328814-105.823228-105.823228 0-58.411089 47.412139-105.823228 105.823228-105.823228zm0 0" fill="none" stroke="#212121" stroke-linecap="round" stroke-linejoin="round" stroke-width="3" transform="matrix(.0468795 0 0 .0468795 0 10.079087)"/><path d="m11.90625 9.613281c1.097656 0 1.984375.890625 1.984375 1.984375 0 1.097656-.886719 1.984375-1.984375 1.984375-1.09375 0-1.984375-.886719-1.984375-1.984375 0-1.09375.890625-1.984375 1.984375-1.984375zm0 0" fill="url(#k)"/><path d="m11.90625 9.613281c-1.097656 0-1.984375.886719-1.984375 1.984375 0 .03125 0 .0625.003906.09375.046875-1.054687.914063-1.890625 1.980469-1.890625 1.070312 0 1.933594.835938 1.984375 1.890625 0-.03125 0-.0625 0-.09375 0-1.097656-.882813-1.984375-1.984375-1.984375zm0 0" fill-opacity=".235294"/><path d="m11.90625 13.832031c-1.097656 0-1.984375-.886719-1.984375-1.984375 0-.03125 0-.0625.003906-.09375.046875 1.054688.914063 1.890625 1.980469 1.890625 1.070312 0 1.933594-.835937 1.984375-1.890625v.09375c0 1.097656-.882813 1.984375-1.984375 1.984375zm0 0" fill="#fff" fill-opacity=".392157"/><path d="m253.975747-9.936249c23.41443 0 42.329291 18.998185 42.329291 42.329291 0 23.414431-18.914861 42.329291-42.329291 42.329291-23.331106 0-42.329292-18.91486-42.329292-42.329291 0-23.331106 18.998186-42.329291 42.329292-42.329291zm0 0" fill="none" stroke="#212121" stroke-linecap="round" stroke-linejoin="round" stroke-width="3" transform="matrix(.0468795 0 0 .0468795 0 10.079087)"/></svg>

<?xml version="1.0" encoding="UTF-8"?>
<svg xmlns="http://www.w3.org/2000/svg" xmlns:xlink="http://www.w3.org/1999/xlink" width="24px" height="24px" viewBox="0 0 24 24" version="1.1">
<defs>
<linearGradient id="linear0" gradientUnits="userSpaceOnUse" x1="254" y1="233.5" x2="254" y2="254.666672" gradientTransform="matrix(0.0468795,0,0,0.0468795,-0.0000028613,10.079089)">
<stop offset="0" style="stop-color:rgb(0%,0%,0%);stop-opacity:0.27451;"/>
<stop offset="1" style="stop-color:rgb(0%,0%,0%);stop-opacity:0;"/>
</linearGradient>
<radialGradient id="radial0" gradientUnits="userSpaceOnUse" cx="450.908936" cy="189.579361" fx="450.908936" fy="189.579361" r="21.166656" gradientTransform="matrix(0.000000130628,-0.0585994,-0.105479,-0.0000000761539,39.097986,47.696499)">
<stop offset="0" style="stop-color:rgb(0%,0%,0%);stop-opacity:0.313726;"/>
<stop offset="0.222222" style="stop-color:rgb(0%,0%,0%);stop-opacity:0.27451;"/>
<stop offset="1" style="stop-color:rgb(0%,0%,0%);stop-opacity:0;"/>
</radialGradient>
<radialGradient id="radial1" gradientUnits="userSpaceOnUse" cx="450.908936" cy="189.579361" fx="450.908936" fy="189.579361" r="21.166656" gradientTransform="matrix(-0.000000130628,0.0585994,0.105479,0.0000000761539,-15.28321,-5.645609)">
<stop offset="0" style="stop-color:rgb(0%,0%,0%);stop-opacity:0.313726;"/>
<stop offset="0.222222" style="stop-color:rgb(0%,0%,0%);stop-opacity:0.27451;"/>
<stop offset="1" style="stop-color:rgb(0%,0%,0%);stop-opacity:0;"/>
</radialGradient>
<radialGradient id="radial2" gradientUnits="userSpaceOnUse" cx="450.908936" cy="189.579361" fx="450.908936" fy="189.579361" r="21.166656" gradientTransform="matrix(-0.000000130628,-0.0585994,0.105479,-0.0000000761539,-15.28321,47.696499)">
<stop offset="0" style="stop-color:rgb(0%,0%,0%);stop-opacity:0.313726;"/>
<stop offset="0.222222" style="stop-color:rgb(0%,0%,0%);stop-opacity:0.27451;"/>
<stop offset="1" style="stop-color:rgb(0%,0%,0%);stop-opacity:0;"/>
</radialGradient>
<radialGradient id="radial3" gradientUnits="userSpaceOnUse" cx="450.908936" cy="189.579361" fx="450.908936" fy="189.579361" r="21.166656" gradientTransform="matrix(0.000000130628,0.0585994,-0.105479,0.0000000761539,39.097985,-5.64561)">
<stop offset="0" style="stop-color:rgb(0%,0%,0%);stop-opacity:0.313726;"/>
<stop offset="0.222222" style="stop-color:rgb(0%,0%,0%);stop-opacity:0.27451;"/>
<stop offset="1" style="stop-color:rgb(0%,0%,0%);stop-opacity:0;"/>
</radialGradient>
<linearGradient id="linear1" gradientUnits="userSpaceOnUse" x1="169.333328" y1="233.5" x2="169.333328" y2="-168.666656" gradientTransform="matrix(0.0468795,0,0,0.0468795,0,10.079087)">
<stop offset="0" style="stop-color:rgb(100%,43.921569%,26.274511%);stop-opacity:1;"/>
<stop offset="1" style="stop-color:rgb(100%,54.11765%,39.607844%);stop-opacity:1;"/>
</linearGradient>
<linearGradient id="linear2" gradientUnits="userSpaceOnUse" x1="254.000015" y1="-189.833328" x2="254" y2="275.833344" gradientTransform="matrix(0.0468795,0,0,0.0468795,0,10.079087)">
<stop offset="0" style="stop-color:rgb(25.882354%,25.882354%,25.882354%);stop-opacity:1;"/>
<stop offset="1" style="stop-color:rgb(38.039216%,38.039216%,38.039216%);stop-opacity:1;"/>
</linearGradient>
<linearGradient id="linear3" gradientUnits="userSpaceOnUse" x1="254" y1="233.5" x2="254" y2="-168.666672" gradientTransform="matrix(0.0468795,0,0,0.0468795,0,10.079087)">
<stop offset="0" style="stop-color:rgb(45.882353%,45.882353%,45.882353%);stop-opacity:1;"/>
<stop offset="1" style="stop-color:rgb(61.960787%,61.960787%,61.960787%);stop-opacity:1;"/>
</linearGradient>
<linearGradient id="linear4" gradientUnits="userSpaceOnUse" x1="289.277771" y1="-161.611115" x2="289.277771" y2="244.083328" gradientTransform="matrix(0.0187518,0,0,0.0187518,7.144429,10.990893)">
<stop offset="0" style="stop-color:rgb(25.882354%,25.882354%,25.882354%);stop-opacity:1;"/>
<stop offset="1" style="stop-color:rgb(38.039216%,38.039216%,38.039216%);stop-opacity:1;"/>
</linearGradient>
</defs>
<g id="surface1">
<path style=" stroke:none;fill-rule:nonzero;fill:url(#linear0);" d="M 4.464844 20.953125 L 19.347656 20.953125 L 19.347656 22.054688 L 4.464844 22.054688 Z M 4.464844 20.953125 "/>
<path style=" stroke:none;fill-rule:nonzero;fill:url(#radial0);" d="M 19.347656 21.027344 L 21.335938 21.027344 L 21.335938 20.03125 L 19.347656 20.03125 Z M 19.347656 21.027344 "/>
<path style=" stroke:none;fill-rule:nonzero;fill:url(#radial1);" d="M 4.464844 21.027344 L 2.480469 21.027344 L 2.480469 22.019531 L 4.464844 22.019531 Z M 4.464844 21.027344 "/>
<path style=" stroke:none;fill-rule:nonzero;fill:url(#radial2);" d="M 4.464844 21.027344 L 2.480469 21.027344 L 2.480469 20.03125 L 4.464844 20.03125 Z M 4.464844 21.027344 "/>
<path style=" stroke:none;fill-rule:nonzero;fill:url(#radial3);" d="M 19.347656 21.027344 L 21.335938 21.027344 L 21.335938 22.019531 L 19.347656 22.019531 Z M 19.347656 21.027344 "/>
<path style=" stroke:none;fill-rule:nonzero;fill:url(#linear1);" d="M 3.472656 2.171875 L 20.339844 2.171875 C 20.890625 2.171875 21.335938 2.617188 21.335938 3.164062 L 21.335938 20.03125 C 21.335938 20.582031 20.890625 21.027344 20.339844 21.027344 L 3.472656 21.027344 C 2.925781 21.027344 2.480469 20.582031 2.480469 20.03125 L 2.480469 3.164062 C 2.480469 2.617188 2.925781 2.171875 3.472656 2.171875 Z M 3.472656 2.171875 "/>
<path style=" stroke:none;fill-rule:nonzero;fill:rgb(100%,100%,100%);fill-opacity:0.392157;" d="M 3.472656 2.222656 C 2.921875 2.222656 2.480469 2.664062 2.480469 3.214844 L 2.480469 3.335938 C 2.480469 2.789062 2.921875 2.34375 3.472656 2.34375 L 20.339844 2.34375 C 20.890625 2.34375 21.335938 2.789062 21.335938 3.335938 L 21.335938 3.214844 C 21.335938 2.664062 20.890625 2.222656 20.339844 2.222656 Z M 3.472656 2.222656 "/>
<path style=" stroke:none;fill-rule:nonzero;fill:rgb(0%,0%,0%);fill-opacity:0.196078;" d="M 3.472656 20.964844 C 2.921875 20.964844 2.480469 20.519531 2.480469 19.972656 L 2.480469 19.847656 C 2.480469 20.398438 2.921875 20.839844 3.472656 20.839844 L 20.339844 20.839844 C 20.890625 20.839844 21.335938 20.398438 21.335938 19.847656 L 21.335938 19.972656 C 21.335938 20.519531 20.890625 20.964844 20.339844 20.964844 Z M 3.472656 20.964844 "/>
<path style="fill:none;stroke-width:3;stroke-linecap:round;stroke-linejoin:miter;stroke:rgb(12.941177%,12.941177%,12.941177%);stroke-opacity:1;stroke-miterlimit:4;" d="M 74.076259 -168.671091 L 433.875234 -168.671091 C 445.624112 -168.671091 455.123205 -159.171998 455.123205 -147.506445 L 455.123205 212.292529 C 455.123205 224.041407 445.624112 233.5405 433.875234 233.5405 L 74.076259 233.5405 C 62.410707 233.5405 52.911614 224.041407 52.911614 212.292529 L 52.911614 -147.506445 C 52.911614 -159.171998 62.410707 -168.671091 74.076259 -168.671091 Z M 74.076259 -168.671091 " transform="matrix(0.0468795,0,0,0.0468795,0,10.079087)"/>
<path style=" stroke:none;fill-rule:nonzero;fill:url(#linear2);" d="M 11.90625 4.652344 C 15.742188 4.652344 18.851562 7.761719 18.851562 11.597656 C 18.851562 15.433594 15.742188 18.542969 11.90625 18.542969 C 8.070312 18.542969 4.960938 15.433594 4.960938 11.597656 C 4.960938 7.761719 8.070312 4.652344 11.90625 4.652344 Z M 11.90625 4.652344 "/>
<path style=" stroke:none;fill-rule:nonzero;fill:rgb(0%,0%,0%);fill-opacity:0.235294;" d="M 11.90625 4.652344 C 8.058594 4.652344 4.960938 7.75 4.960938 11.597656 C 4.960938 11.648438 4.960938 11.695312 4.964844 11.742188 C 5.039062 7.960938 8.109375 4.941406 11.90625 4.941406 C 15.707031 4.941406 18.773438 7.960938 18.851562 11.742188 C 18.851562 11.695312 18.851562 11.648438 18.851562 11.597656 C 18.851562 7.75 15.753906 4.652344 11.90625 4.652344 Z M 11.90625 4.652344 "/>
<path style=" stroke:none;fill-rule:nonzero;fill:rgb(100%,100%,100%);fill-opacity:0.392157;" d="M 4.960938 11.722656 C 4.960938 11.765625 4.960938 11.804688 4.960938 11.847656 C 4.960938 15.695312 8.058594 18.792969 11.90625 18.792969 C 15.753906 18.792969 18.851562 15.695312 18.851562 11.847656 C 18.851562 11.804688 18.851562 11.765625 18.851562 11.722656 C 18.785156 15.511719 15.714844 18.542969 11.90625 18.542969 C 8.101562 18.542969 5.027344 15.511719 4.960938 11.722656 Z M 4.960938 11.722656 "/>
<path style="fill:none;stroke-width:3;stroke-linecap:round;stroke-linejoin:round;stroke:rgb(12.941177%,12.941177%,12.941177%);stroke-opacity:1;stroke-miterlimit:4;" d="M 253.975747 -115.759477 C 335.801266 -115.759477 402.128265 -49.432478 402.128265 32.393042 C 402.128265 114.218561 335.801266 180.545561 253.975747 180.545561 C 172.150227 180.545561 105.823228 114.218561 105.823228 32.393042 C 105.823228 -49.432478 172.150227 -115.759477 253.975747 -115.759477 Z M 253.975747 -115.759477 " transform="matrix(0.0468795,0,0,0.0468795,0,10.079087)"/>
<path style=" stroke:none;fill-rule:nonzero;fill:url(#linear3);" d="M 11.90625 6.636719 C 14.648438 6.636719 16.867188 8.859375 16.867188 11.597656 C 16.867188 14.339844 14.648438 16.558594 11.90625 16.558594 C 9.167969 16.558594 6.945312 14.339844 6.945312 11.597656 C 6.945312 8.859375 9.167969 6.636719 11.90625 6.636719 Z M 11.90625 6.636719 "/>
<path style=" stroke:none;fill-rule:nonzero;fill:rgb(100%,100%,100%);fill-opacity:0.392157;" d="M 11.90625 6.636719 C 9.160156 6.636719 6.945312 8.851562 6.945312 11.597656 C 6.945312 11.640625 6.945312 11.679688 6.949219 11.722656 C 7.011719 9.03125 9.199219 6.886719 11.90625 6.886719 C 14.613281 6.886719 16.800781 9.03125 16.867188 11.722656 C 16.867188 11.679688 16.867188 11.640625 16.867188 11.597656 C 16.867188 8.851562 14.65625 6.636719 11.90625 6.636719 Z M 11.90625 6.636719 "/>
<path style=" stroke:none;fill-rule:nonzero;fill:rgb(0%,0%,0%);fill-opacity:0.235294;" d="M 6.949219 11.785156 C 6.945312 11.847656 6.945312 11.910156 6.945312 11.972656 C 6.945312 14.71875 9.160156 16.933594 11.90625 16.933594 C 14.65625 16.933594 16.867188 14.71875 16.867188 11.972656 C 16.867188 11.910156 16.867188 11.847656 16.867188 11.785156 C 16.769531 14.445312 14.59375 16.558594 11.90625 16.558594 C 9.222656 16.558594 7.046875 14.445312 6.949219 11.785156 Z M 6.949219 11.785156 "/>
<path style="fill:none;stroke-width:3;stroke-linecap:round;stroke-linejoin:round;stroke:rgb(12.941177%,12.941177%,12.941177%);stroke-opacity:1;stroke-miterlimit:4;" d="M 253.975747 -73.430186 C 312.470161 -73.430186 359.798974 -26.018047 359.798974 32.393042 C 359.798974 90.887456 312.470161 138.21627 253.975747 138.21627 C 195.564658 138.21627 148.152519 90.887456 148.152519 32.393042 C 148.152519 -26.018047 195.564658 -73.430186 253.975747 -73.430186 Z M 253.975747 -73.430186 " transform="matrix(0.0468795,0,0,0.0468795,0,10.079087)"/>
<path style=" stroke:none;fill-rule:nonzero;fill:url(#linear4);" d="M 11.90625 9.613281 C 13.003906 9.613281 13.890625 10.503906 13.890625 11.597656 C 13.890625 12.695312 13.003906 13.582031 11.90625 13.582031 C 10.8125 13.582031 9.921875 12.695312 9.921875 11.597656 C 9.921875 10.503906 10.8125 9.613281 11.90625 9.613281 Z M 11.90625 9.613281 "/>
<path style=" stroke:none;fill-rule:nonzero;fill:rgb(0%,0%,0%);fill-opacity:0.235294;" d="M 11.90625 9.613281 C 10.808594 9.613281 9.921875 10.5 9.921875 11.597656 C 9.921875 11.628906 9.921875 11.660156 9.925781 11.691406 C 9.972656 10.636719 10.839844 9.800781 11.90625 9.800781 C 12.976562 9.800781 13.839844 10.636719 13.890625 11.691406 C 13.890625 11.660156 13.890625 11.628906 13.890625 11.597656 C 13.890625 10.5 13.007812 9.613281 11.90625 9.613281 Z M 11.90625 9.613281 "/>
<path style=" stroke:none;fill-rule:nonzero;fill:rgb(100%,100%,100%);fill-opacity:0.392157;" d="M 11.90625 13.832031 C 10.808594 13.832031 9.921875 12.945312 9.921875 11.847656 C 9.921875 11.816406 9.921875 11.785156 9.925781 11.753906 C 9.972656 12.808594 10.839844 13.644531 11.90625 13.644531 C 12.976562 13.644531 13.839844 12.808594 13.890625 11.753906 C 13.890625 11.785156 13.890625 11.816406 13.890625 11.847656 C 13.890625 12.945312 13.007812 13.832031 11.90625 13.832031 Z M 11.90625 13.832031 "/>
<path style="fill:none;stroke-width:3;stroke-linecap:round;stroke-linejoin:round;stroke:rgb(12.941177%,12.941177%,12.941177%);stroke-opacity:1;stroke-miterlimit:4;" d="M 253.975747 -9.936249 C 277.390177 -9.936249 296.305038 9.061936 296.305038 32.393042 C 296.305038 55.807473 277.390177 74.722333 253.975747 74.722333 C 230.644641 74.722333 211.646455 55.807473 211.646455 32.393042 C 211.646455 9.061936 230.644641 -9.936249 253.975747 -9.936249 Z M 253.975747 -9.936249 " transform="matrix(0.0468795,0,0,0.0468795,0,10.079087)"/>
</g>
</svg>
